X:98
T:Gan Ainm
S:Maire O'Keeffe, Kerry (fiddle)
D:Session tape - Milltown Malbay 1991
R:Reel
Z:Bernie Stocks
M:4/4
K:D
F2AF DFAG | F2AF EFDE | F2AF dFAF | BFAF E2DE | F2AF DFAG |
F2AF EFDE | ~d3A BAFD | E2FE D4 :: f2df efdf | afdf edBd |
f2df efdf | afdf e2de | f2af e2fe | dfed BAFA | ~B3B {d}BAFD | E2FE D4 :|
<end>
<start>
